X:795
T:Mairi Mhin Meall-shuileach
C:Joe Buchanan's Scottish Tome - Page 539.3
I:539 3
Z:Carl Allison
H:AKA Mary of the Beautiful Eyes
R:Slow Air
L:1/4
M:3/4
K:G
"G"D2 D | "G"B3 | "D"(B2 A) | "G"G3 | "G"B c | "Bm"d3 | "Am"A2 G | "D7"(A B2) |
"G"D D2 | "C"E2 D | "C"(E G2) | "D7"(A2 c) | "G"B B2 | "D7"A2 G | "C"(E2 G) | "G"G3 :|

